Newaita-dark/apps/16/ruby.svg

<svg height="16pt" viewBox="0 0 16 16" width="16pt" xmlns="http://www.w3.org/2000/svg" xmlns:xlink="http://www.w3.org/1999/xlink"><linearGradient id="a"><stop offset="0" stop-opacity=".313725"/><stop offset=".222222" stop-opacity=".27451"/><stop offset="1" stop-opacity="0"/></linearGradient><radialGradient id="b" cx="450.90894" cy="189.57936" gradientTransform="matrix(.00000007 -.0390662 -.0527395 -.00000005 17.81251 31.816042)" gradientUnits="userSpaceOnUse" r="21.166656" xlink:href="#a"/><radialGradient id="c" cx="450.90894" cy="189.57936" gradientTransform="matrix(-.00000007 .0390662 .0527395 .00000005 -1.935995 -3.745365)" gradientUnits="userSpaceOnUse" r="21.166656" xlink:href="#a"/><radialGradient id="d" cx="450.90894" cy="189.57936" gradientTransform="matrix(-.00000007 -.0390662 .0527395 -.00000005 -1.935995 31.816042)" gradientUnits="userSpaceOnUse" r="21.166656" xlink:href="#a"/><radialGradient id="e" cx="450.90894" cy="189.57936" gradientTransform="matrix(.00000007 .0390662 -.0527395 .00000005 17.812509 -3.745365)" gradientUnits="userSpaceOnUse" r="21.166656" xlink:href="#a"/><linearGradient id="f"><stop offset="0" stop-color="#e57373"/><stop offset="1" stop-color="#ef9a9a"/></linearGradient><linearGradient id="g" gradientUnits="userSpaceOnUse" x1="3.9691296" x2="3.9691296" xlink:href="#f" y1="14.01696629816" y2="1.44805531933"/><linearGradient id="h"><stop offset="0" stop-color="#ef5350"/><stop offset="1" stop-color="#e57373"/></linearGradient><linearGradient id="i" gradientUnits="userSpaceOnUse" x1="6.615216" x2="6.615216" xlink:href="#h" y1="14.01696629816" y2="1.44805531933"/><linearGradient id="j"><stop offset="0" stop-color="#f44336"/><stop offset="1" stop-color="#ef5350"/></linearGradient><linearGradient id="k" gradientUnits="userSpaceOnUse" x1="7.9382592" x2="7.9382592" xlink:href="#j" y1="14.01696629816" y2="1.44805523664"/><linearGradient id="l" gradientUnits="userSpaceOnUse" x1="10.5843456" x2="10.5843456" xlink:href="#h" y1="14.01696629816" y2="1.44805531933"/><linearGradient id="m" gradientUnits="userSpaceOnUse" x1="12.5689104" x2="12.5689104" xlink:href="#f" y1="14.01696629816" y2="1.44805531933"/><linearGradient id="n" gradientUnits="userSpaceOnUse" x1="3.307608" x2="3.307608" xlink:href="#j" y1="14.01696629816" y2="1.44805531933"/><linearGradient id="o" gradientUnits="userSpaceOnUse" x1="7.9382592" x2="7.9382592" xlink:href="#h" y1="14.01696629816" y2="1.44805523664"/><linearGradient id="p" gradientUnits="userSpaceOnUse" x1="11.2458672" x2="11.2458672" xlink:href="#j" y1="14.01696629816" y2="1.44805531933"/><path d="m7.9375 14.035156h.992188v-.660156h-.992188zm0 0" fill="url(#b)"/><path d="m7.9375 14.035156h-.992188v.660156h.992188zm0 0" fill="url(#c)"/><path d="m7.9375 14.035156h-.992188v-.660156h.992188zm0 0" fill="url(#d)"/><path d="m7.9375 14.035156h.992188v.660156h-.992188zm0 0" fill="url(#e)"/><path d="m3.613281 1.613281c-.074219.0625-.132812.144531-.175781.238281l-1.984375 4.628907c-.035156.085937-.050781.171875-.050781.261719h4.113281zm0 0" fill="url(#g)"/><path d="m7.933594 1.453125h-3.890625c-.160157 0-.3125.058594-.429688.160156l1.898438 5.121094zm0 0" fill="url(#i)"/><path d="m7.933594 1.453125-2.421875 5.28125.003906.007813h4.847656l-2.417969-5.289063zm0 0" fill="url(#k)"/><path d="m12.410156 1.609375c-.117187-.097656-.269531-.15625-.429687-.15625h-4.035157l2.417969 5.289063h.019531zm0 0" fill="url(#l)"/><path d="m12.410156 1.609375-2.027344 5.132813h4.242188c0-.089844-.015625-.175782-.054688-.261719l-1.984374-4.628907c-.039063-.097656-.101563-.175781-.175782-.242187zm0 0" fill="url(#m)"/><path d="m5.511719 6.742188h-4.183594c0 .15625.054687.316406.167969.4375l5.953125 6.617187c.128906.144531.308593.214844.488281.214844zm0 0" fill="url(#n)"/><path d="m5.511719 6.742188 2.425781 7.269531v.003906l2.425781-7.273437zm0 0" fill="url(#o)"/><path d="m10.363281 6.742188-2.425781 7.273437c.179688-.003906.359375-.074219.488281-.21875l5.957031-6.617187c.109376-.121094.167969-.28125.167969-.4375zm0 0" fill="url(#p)"/><path d="m4.042969 1.453125c-.160157 0-.3125.058594-.429688.160156-.074219.0625-.132812.144531-.175781.238281l-1.984375 4.628907c-.035156.085937-.050781.171875-.050781.261719h-.074219c0 .054687.003906.109374.019531.160156h.054688c0-.085938.015625-.175782.050781-.257813l1.984375-4.628906c.042969-.09375.101562-.175781.175781-.238281.117188-.101563.269531-.164063.429688-.164063h7.9375c.160156 0 .3125.058594.429687.160157.074219.066406.136719.144531.175782.242187l1.984374 4.628906c.015626.03125.027344.0625.035157.097657h.019531c0-.089844-.015625-.175782-.054688-.261719l-1.984374-4.628907c-.039063-.097656-.101563-.175781-.175782-.242187-.117187-.097656-.269531-.15625-.429687-.15625zm0 0" fill="#fff" fill-opacity=".392157"/><path d="m1.328125 6.742188c0 .15625.054687.316406.167969.4375l5.953125 6.617187c.128906.144531.308593.214844.488281.214844v.003906c.179688-.003906.359375-.074219.488281-.21875l5.957031-6.617187c.109376-.121094.167969-.28125.167969-.4375h-.035156c-.027344.082031-.074219.160156-.132813.230468l-5.957031 6.613282c-.128906.144531-.308593.21875-.488281.21875s-.359375-.074219-.488281-.21875l-5.953125-6.613282c-.0625-.070312-.109375-.148437-.136719-.230468zm0 0" fill-opacity=".235294"/><path d="m4.042969 1.402344c-.171875.003906-.332031.066406-.457031.171875-.003907 0-.003907 0-.003907.003906-.078125.066406-.144531.152344-.1875.253906l-1.984375 4.628907c-.03125.074218-.050781.152343-.054687.230468h-.027344c-.027344 0-.050781.023438-.050781.050782.003906.167968.0625.339843.183594.46875l5.953124 6.617187c.140626.152344.332032.230469.523438.230469-.003906 0-.003906.003906 0 .003906h.003906c.191406-.003906.382813-.082031.519532-.234375l5.957031-6.617187c.105469-.117188.167969-.269532.175781-.421876h.03125c.027344 0 .046875-.023437.046875-.046874 0-.097657-.019531-.191407-.058594-.28125l-1.984375-4.628907c-.042968-.101562-.109375-.1875-.1875-.257812-.125-.105469-.289062-.167969-.460937-.171875zm0 .097656h3.816406l-1.476563 3.222656-.863281 1.890625-1.851562-4.984375c.105469-.082031.238281-.128906.375-.128906zm3.972656 0h3.964844c.140625 0 .269531.042969.371093.125l-.03125.082031-1.949218 4.9375zm-.078125.050781 2.351562 5.140625h-4.707031l.234375-.503906zm4.488281.140625c.050781.050782.089844.109375.117188.175782l1.984375 4.632812c.027344.0625.042968.128906.046875.191406h-4.121094zm-8.832031.003906 1.855469 4.996094h-4c.007812-.0625.019531-.128906.046875-.191406l1.984375-4.632812c.027343-.0625.066406-.121094.113281-.171876zm-2.21875 5.09375h4.105469l1.191406 3.578126 1.199219 3.59375c-.144532-.015626-.28125-.078126-.386719-.195313l-5.953125-6.617187c-.09375-.101563-.144531-.230469-.15625-.359376zm4.203125 0h4.71875l-2.359375 7.078126zm4.820313 0h4.101562c-.007812.128907-.0625.257813-.152344.359376l-5.953125 6.617187c-.105469.117187-.246093.179687-.390625.199219zm0 0" fill="#212121"/></svg>

<?xml version="1.0" encoding="UTF-8"?>
<svg xmlns="http://www.w3.org/2000/svg" xmlns:xlink="http://www.w3.org/1999/xlink" width="16pt" height="16pt" viewBox="0 0 16 16" version="1.1">
<defs>
<radialGradient id="radial0" gradientUnits="userSpaceOnUse" cx="450.90894" cy="189.57936" fx="450.90894" fy="189.57936" r="21.166656" gradientTransform="matrix(0.000000065314,-0.0390662,-0.0527395,-0.0000000507693,17.81251,31.816042)">
<stop offset="0" style="stop-color:rgb(0%,0%,0%);stop-opacity:0.313725;"/>
<stop offset="0.222222" style="stop-color:rgb(0%,0%,0%);stop-opacity:0.27451;"/>
<stop offset="1" style="stop-color:rgb(0%,0%,0%);stop-opacity:0;"/>
</radialGradient>
<radialGradient id="radial1" gradientUnits="userSpaceOnUse" cx="450.90894" cy="189.57936" fx="450.90894" fy="189.57936" r="21.166656" gradientTransform="matrix(-0.000000065314,0.0390662,0.0527395,0.0000000507693,-1.935995,-3.745365)">
<stop offset="0" style="stop-color:rgb(0%,0%,0%);stop-opacity:0.313725;"/>
<stop offset="0.222222" style="stop-color:rgb(0%,0%,0%);stop-opacity:0.27451;"/>
<stop offset="1" style="stop-color:rgb(0%,0%,0%);stop-opacity:0;"/>
</radialGradient>
<radialGradient id="radial2" gradientUnits="userSpaceOnUse" cx="450.90894" cy="189.57936" fx="450.90894" fy="189.57936" r="21.166656" gradientTransform="matrix(-0.000000065314,-0.0390662,0.0527395,-0.0000000507693,-1.935995,31.816042)">
<stop offset="0" style="stop-color:rgb(0%,0%,0%);stop-opacity:0.313725;"/>
<stop offset="0.222222" style="stop-color:rgb(0%,0%,0%);stop-opacity:0.27451;"/>
<stop offset="1" style="stop-color:rgb(0%,0%,0%);stop-opacity:0;"/>
</radialGradient>
<radialGradient id="radial3" gradientUnits="userSpaceOnUse" cx="450.90894" cy="189.57936" fx="450.90894" fy="189.57936" r="21.166656" gradientTransform="matrix(0.000000065314,0.0390662,-0.0527395,0.0000000507693,17.812509,-3.745365)">
<stop offset="0" style="stop-color:rgb(0%,0%,0%);stop-opacity:0.313725;"/>
<stop offset="0.222222" style="stop-color:rgb(0%,0%,0%);stop-opacity:0.27451;"/>
<stop offset="1" style="stop-color:rgb(0%,0%,0%);stop-opacity:0;"/>
</radialGradient>
<linearGradient id="linear0" gradientUnits="userSpaceOnUse" x1="480" y1="1695.1182" x2="480" y2="175.11813" gradientTransform="matrix(0.00826902,0,0,0.00826902,0,0)">
<stop offset="0" style="stop-color:rgb(89.803922%,45.098039%,45.098039%);stop-opacity:1;"/>
<stop offset="1" style="stop-color:rgb(93.72549%,60.392157%,60.392157%);stop-opacity:1;"/>
</linearGradient>
<linearGradient id="linear1" gradientUnits="userSpaceOnUse" x1="800" y1="1695.1182" x2="800" y2="175.11813" gradientTransform="matrix(0.00826902,0,0,0.00826902,0,0)">
<stop offset="0" style="stop-color:rgb(93.72549%,32.54902%,31.372549%);stop-opacity:1;"/>
<stop offset="1" style="stop-color:rgb(89.803922%,45.098039%,45.098039%);stop-opacity:1;"/>
</linearGradient>
<linearGradient id="linear2" gradientUnits="userSpaceOnUse" x1="960" y1="1695.1182" x2="960" y2="175.11812" gradientTransform="matrix(0.00826902,0,0,0.00826902,0,0)">
<stop offset="0" style="stop-color:rgb(95.686275%,26.27451%,21.176471%);stop-opacity:1;"/>
<stop offset="1" style="stop-color:rgb(93.72549%,32.54902%,31.372549%);stop-opacity:1;"/>
</linearGradient>
<linearGradient id="linear3" gradientUnits="userSpaceOnUse" x1="1280" y1="1695.1182" x2="1280" y2="175.11813" gradientTransform="matrix(0.00826902,0,0,0.00826902,0,0)">
<stop offset="0" style="stop-color:rgb(93.72549%,32.54902%,31.372549%);stop-opacity:1;"/>
<stop offset="1" style="stop-color:rgb(89.803922%,45.098039%,45.098039%);stop-opacity:1;"/>
</linearGradient>
<linearGradient id="linear4" gradientUnits="userSpaceOnUse" x1="1520" y1="1695.1182" x2="1520" y2="175.11813" gradientTransform="matrix(0.00826902,0,0,0.00826902,0,0)">
<stop offset="0" style="stop-color:rgb(89.803922%,45.098039%,45.098039%);stop-opacity:1;"/>
<stop offset="1" style="stop-color:rgb(93.72549%,60.392157%,60.392157%);stop-opacity:1;"/>
</linearGradient>
<linearGradient id="linear5" gradientUnits="userSpaceOnUse" x1="400" y1="1695.1182" x2="400" y2="175.11813" gradientTransform="matrix(0.00826902,0,0,0.00826902,0,0)">
<stop offset="0" style="stop-color:rgb(95.686275%,26.27451%,21.176471%);stop-opacity:1;"/>
<stop offset="1" style="stop-color:rgb(93.72549%,32.54902%,31.372549%);stop-opacity:1;"/>
</linearGradient>
<linearGradient id="linear6" gradientUnits="userSpaceOnUse" x1="960" y1="1695.1182" x2="960" y2="175.11812" gradientTransform="matrix(0.00826902,0,0,0.00826902,0,0)">
<stop offset="0" style="stop-color:rgb(93.72549%,32.54902%,31.372549%);stop-opacity:1;"/>
<stop offset="1" style="stop-color:rgb(89.803922%,45.098039%,45.098039%);stop-opacity:1;"/>
</linearGradient>
<linearGradient id="linear7" gradientUnits="userSpaceOnUse" x1="1360" y1="1695.1182" x2="1360" y2="175.11813" gradientTransform="matrix(0.00826902,0,0,0.00826902,0,0)">
<stop offset="0" style="stop-color:rgb(95.686275%,26.27451%,21.176471%);stop-opacity:1;"/>
<stop offset="1" style="stop-color:rgb(93.72549%,32.54902%,31.372549%);stop-opacity:1;"/>
</linearGradient>
</defs>
<g id="surface1">
<path style=" stroke:none;fill-rule:nonzero;fill:url(#radial0);" d="M 7.9375 14.035156 L 8.929688 14.035156 L 8.929688 13.375 L 7.9375 13.375 Z M 7.9375 14.035156 "/>
<path style=" stroke:none;fill-rule:nonzero;fill:url(#radial1);" d="M 7.9375 14.035156 L 6.945312 14.035156 L 6.945312 14.695312 L 7.9375 14.695312 Z M 7.9375 14.035156 "/>
<path style=" stroke:none;fill-rule:nonzero;fill:url(#radial2);" d="M 7.9375 14.035156 L 6.945312 14.035156 L 6.945312 13.375 L 7.9375 13.375 Z M 7.9375 14.035156 "/>
<path style=" stroke:none;fill-rule:nonzero;fill:url(#radial3);" d="M 7.9375 14.035156 L 8.929688 14.035156 L 8.929688 14.695312 L 7.9375 14.695312 Z M 7.9375 14.035156 "/>
<path style=" stroke:none;fill-rule:nonzero;fill:url(#linear0);" d="M 3.613281 1.613281 C 3.539062 1.675781 3.480469 1.757812 3.4375 1.851562 L 1.453125 6.480469 C 1.417969 6.566406 1.402344 6.652344 1.402344 6.742188 L 5.515625 6.742188 Z M 3.613281 1.613281 "/>
<path style=" stroke:none;fill-rule:nonzero;fill:url(#linear1);" d="M 7.933594 1.453125 L 4.042969 1.453125 C 3.882812 1.453125 3.730469 1.511719 3.613281 1.613281 L 5.511719 6.734375 Z M 7.933594 1.453125 "/>
<path style=" stroke:none;fill-rule:nonzero;fill:url(#linear2);" d="M 7.933594 1.453125 L 5.511719 6.734375 L 5.515625 6.742188 L 10.363281 6.742188 L 7.945312 1.453125 Z M 7.933594 1.453125 "/>
<path style=" stroke:none;fill-rule:nonzero;fill:url(#linear3);" d="M 12.410156 1.609375 C 12.292969 1.511719 12.140625 1.453125 11.980469 1.453125 L 7.945312 1.453125 L 10.363281 6.742188 L 10.382812 6.742188 Z M 12.410156 1.609375 "/>
<path style=" stroke:none;fill-rule:nonzero;fill:url(#linear4);" d="M 12.410156 1.609375 L 10.382812 6.742188 L 14.625 6.742188 C 14.625 6.652344 14.609375 6.566406 14.570312 6.480469 L 12.585938 1.851562 C 12.546875 1.753906 12.484375 1.675781 12.410156 1.609375 Z M 12.410156 1.609375 "/>
<path style=" stroke:none;fill-rule:nonzero;fill:url(#linear5);" d="M 5.511719 6.742188 L 1.328125 6.742188 C 1.328125 6.898438 1.382812 7.058594 1.496094 7.179688 L 7.449219 13.796875 C 7.578125 13.941406 7.757812 14.011719 7.9375 14.011719 Z M 5.511719 6.742188 "/>
<path style=" stroke:none;fill-rule:nonzero;fill:url(#linear6);" d="M 5.511719 6.742188 L 7.9375 14.011719 C 7.9375 14.011719 7.9375 14.015625 7.9375 14.015625 L 10.363281 6.742188 Z M 5.511719 6.742188 "/>
<path style=" stroke:none;fill-rule:nonzero;fill:url(#linear7);" d="M 10.363281 6.742188 L 7.9375 14.015625 C 8.117188 14.011719 8.296875 13.941406 8.425781 13.796875 L 14.382812 7.179688 C 14.492188 7.058594 14.550781 6.898438 14.550781 6.742188 Z M 10.363281 6.742188 "/>
<path style=" stroke:none;fill-rule:nonzero;fill:rgb(100%,100%,100%);fill-opacity:0.392157;" d="M 4.042969 1.453125 C 3.882812 1.453125 3.730469 1.511719 3.613281 1.613281 C 3.539062 1.675781 3.480469 1.757812 3.4375 1.851562 L 1.453125 6.480469 C 1.417969 6.566406 1.402344 6.652344 1.402344 6.742188 L 1.328125 6.742188 C 1.328125 6.796875 1.332031 6.851562 1.347656 6.902344 L 1.402344 6.902344 C 1.402344 6.816406 1.417969 6.726562 1.453125 6.644531 L 3.4375 2.015625 C 3.480469 1.921875 3.539062 1.839844 3.613281 1.777344 C 3.730469 1.675781 3.882812 1.613281 4.042969 1.613281 L 11.980469 1.613281 C 12.140625 1.613281 12.292969 1.671875 12.410156 1.773438 C 12.484375 1.839844 12.546875 1.917969 12.585938 2.015625 L 14.570312 6.644531 C 14.585938 6.675781 14.597656 6.707031 14.605469 6.742188 L 14.625 6.742188 C 14.625 6.652344 14.609375 6.566406 14.570312 6.480469 L 12.585938 1.851562 C 12.546875 1.753906 12.484375 1.675781 12.410156 1.609375 C 12.292969 1.511719 12.140625 1.453125 11.980469 1.453125 Z M 4.042969 1.453125 "/>
<path style=" stroke:none;fill-rule:nonzero;fill:rgb(0%,0%,0%);fill-opacity:0.235294;" d="M 1.328125 6.742188 C 1.328125 6.898438 1.382812 7.058594 1.496094 7.179688 L 7.449219 13.796875 C 7.578125 13.941406 7.757812 14.011719 7.9375 14.011719 C 7.9375 14.011719 7.9375 14.015625 7.9375 14.015625 C 8.117188 14.011719 8.296875 13.941406 8.425781 13.796875 L 14.382812 7.179688 C 14.492188 7.058594 14.550781 6.898438 14.550781 6.742188 L 14.515625 6.742188 C 14.488281 6.824219 14.441406 6.902344 14.382812 6.972656 L 8.425781 13.585938 C 8.296875 13.730469 8.117188 13.804688 7.9375 13.804688 C 7.757812 13.804688 7.578125 13.730469 7.449219 13.585938 L 1.496094 6.972656 C 1.433594 6.902344 1.386719 6.824219 1.359375 6.742188 Z M 1.328125 6.742188 "/>
<path style=" stroke:none;fill-rule:nonzero;fill:rgb(12.941176%,12.941176%,12.941176%);fill-opacity:1;" d="M 4.042969 1.402344 C 3.871094 1.40625 3.710938 1.46875 3.585938 1.574219 C 3.582031 1.574219 3.582031 1.574219 3.582031 1.578125 C 3.503906 1.644531 3.4375 1.730469 3.394531 1.832031 L 1.410156 6.460938 C 1.378906 6.535156 1.359375 6.613281 1.355469 6.691406 L 1.328125 6.691406 C 1.300781 6.691406 1.277344 6.714844 1.277344 6.742188 C 1.28125 6.910156 1.339844 7.082031 1.460938 7.210938 L 7.414062 13.828125 C 7.554688 13.980469 7.746094 14.058594 7.9375 14.058594 C 7.933594 14.058594 7.933594 14.0625 7.9375 14.0625 C 7.941406 14.0625 7.941406 14.0625 7.941406 14.0625 C 8.132812 14.058594 8.324219 13.980469 8.460938 13.828125 L 14.417969 7.210938 C 14.523438 7.09375 14.585938 6.941406 14.59375 6.789062 L 14.625 6.789062 C 14.652344 6.789062 14.671875 6.765625 14.671875 6.742188 C 14.671875 6.644531 14.652344 6.550781 14.613281 6.460938 L 12.628906 1.832031 C 12.585938 1.730469 12.519531 1.644531 12.441406 1.574219 C 12.316406 1.46875 12.152344 1.40625 11.980469 1.402344 Z M 4.042969 1.5 L 7.859375 1.5 L 6.382812 4.722656 L 5.519531 6.613281 L 3.667969 1.628906 C 3.773438 1.546875 3.90625 1.5 4.042969 1.5 Z M 8.015625 1.5 L 11.980469 1.5 C 12.121094 1.5 12.25 1.542969 12.351562 1.625 L 12.320312 1.707031 L 10.371094 6.644531 Z M 7.9375 1.550781 L 10.289062 6.691406 L 5.582031 6.691406 L 5.816406 6.1875 Z M 12.425781 1.691406 C 12.476562 1.742188 12.515625 1.800781 12.542969 1.867188 L 14.527344 6.5 C 14.554688 6.5625 14.570312 6.628906 14.574219 6.691406 L 10.453125 6.691406 Z M 3.59375 1.695312 L 5.449219 6.691406 L 1.449219 6.691406 C 1.457031 6.628906 1.46875 6.5625 1.496094 6.5 L 3.480469 1.867188 C 3.507812 1.804688 3.546875 1.746094 3.59375 1.695312 Z M 1.375 6.789062 L 5.480469 6.789062 L 6.671875 10.367188 L 7.871094 13.960938 C 7.726562 13.945312 7.589844 13.882812 7.484375 13.765625 L 1.53125 7.148438 C 1.4375 7.046875 1.386719 6.917969 1.375 6.789062 Z M 5.578125 6.789062 L 10.296875 6.789062 L 7.9375 13.867188 Z M 10.398438 6.789062 L 14.5 6.789062 C 14.492188 6.917969 14.4375 7.046875 14.347656 7.148438 L 8.394531 13.765625 C 8.289062 13.882812 8.148438 13.945312 8.003906 13.964844 Z M 10.398438 6.789062 "/>
</g>
</svg>
